X: 22947
T: Larry's Favourite
R: reel
M: 4/4
K: Adorian
|:AG|EAAG A2 (3Bcd|eA3 BAGE|G2DG EGDE|GA (3Bcd edBg|
eAAG A2 (3Bcd|eA3 BAGE|GA (3Bcd gedB|AcBG A2:|
|:g|eaag egfg|eA3 edBe|d2BG AGEF|GABd g2fg|
eaag egfg|eA3 BAGE|GABd gedB|AcBG A2:|
|:(3Bcd|eaa^g a2=ga|bg3 abge|dggf g2eg|dB3 GABd|
eaa^g a2=ga|bg3 abge|dB3 gedB|AcBG A2:|

